X: 154
T:Credo  De tous biens playne
N: Derived from Jos1302-Credo_De_tous_biens_playne.krn
C: Josquin des Prez
%%abc-version 2.0
%%abcx-abcm2ps-target-version 5.9.1 (29 Sep 2008)
%%abc-creator hum2abc beta
%%abcx-conversion-date 2019/02/12 16:15:45
%%abc-edited-by Jesse Rodin
%%abc-edited-by Jesse Rodin 2011/03/29; Victoria Chang 2011/09/02
%%abcx-initial-encoding-date 2011/09/02/
%%humdrum-veritas 760473723
%%humdrum-veritas-data 4197397247
%%linebreak <none>
%%barnumbers 0
L: 1/4
M: 2/1
Q: 1/2=120
V: 1 clef=treble
V: 2 clef=treble-8
V: 3 clef=treble-8
V: 4 clef=bass
V: 5 clef=bass
K: F
[V:1] z8 | 
[V:2] z4E2F2 | 
[V:3] G8- | 
[V:4] E,2F,2G,4 | 
[V:5] z8 | 
[V:1] E2F2G4 | 
[V:2] G4C4 | 
[V:3] G8 | 
[V:4] C,6B,,A,, | 
[V:5] z8 | 
[V:1] G4F2G2 | 
[V:2] G4z2G2 | 
[V:3] B8 | 
[V:4] G,,4D,2E,2 | 
[V:5] z8 | 
[V:1] A2G4^F2 | 
[V:2] D2d3cA2 | 
[V:3] A8 | 
[V:4] F,2G,2D,4 | 
[V:5] z8 | 
[V:1] G8 | 
[V:2] =B4G2G2 | 
[V:3] G4B4 | 
[V:4] G,,8 | 
[V:5] z8 | 
[V:1] z8 | 
[V:2] G2G2A4 | 
[V:3] B4c4 | 
[V:4] G,4F,4 | 
[V:5] z8 | 
[V:1] z4G2G2 | 
[V:2] G8- | 
[V:3] d8 | 
[V:4] B,3A,B,2G,2 | 
[V:5] z8 | 
[V:1] G2G2A4 | 
[V:2] G4F4 | 
[V:3] _e4d4 | 
[V:4] C,2D,E,F,2D,2 | 
[V:5] z8 | 
[V:1] G6F2 | 
[V:2] G8- | 
[V:3] B8 | 
[V:4] G,,4G,4 | 
[V:5] z8 | 
[V:1] E4D4 | 
[V:2] G8 | 
[V:3] c4B4 | 
[V:4] C,4G,4 | 
[V:5] z8 | 
[V:1] A4B4 | 
[V:2] D8 | 
[V:3] d8 | 
[V:4] F,4B,,4 | 
[V:5] z8 | 
[V:1] A6F2 | 
[V:2] z8 | 
[V:3] c4d4 | 
[V:4] F,4D,4 | 
[V:5] z8 | 
[V:1] G2A2B2c2- | 
[V:2] z8 | 
[V:3] G8 | 
[V:4] E,3F,G,2C,2 | 
[V:5] z8 | 
[V:1] cBAG^F3E | 
[V:2] z8 | 
[V:3] A8 | 
[V:4] F,3E,D,4 | 
[V:5] z8 | 
[V:1] G8- | 
[V:2] z4=B2c2 | 
[V:3] G8- | 
[V:4] z2G,,4C,2 | 
[V:5] z8 | 
[V:1] G8 | 
[V:2] d4e4 | 
[V:3] G8 | 
[V:4] B,,2G,,4C,2 | 
[V:5] z8 | 
[V:1] z8 | 
[V:2] d2c2=B4 | 
[V:3] z4G4 | 
[V:4] B,,2C,2G,,2G,2 | 
[V:5] z8 | 
[V:1] z8 | 
[V:2] c2c2d4- | 
[V:3] F4F4 | 
[V:4] A,G,F,E,D,4 | 
[V:5] z8 | 
[V:1] z8 | 
[V:2] d4e4 | 
[V:3] B4B4 | 
[V:4] G,6F,G, | 
[V:5] z8 | 
[V:1] z8 | 
[V:2] e4f4 | 
[V:3] A4d4- | 
[V:4] A,4D,4 | 
[V:5] z8 | 
[V:1] z8 | 
[V:2] e2e2e2e2 | 
[V:3] d2^c2^c2=B2 | 
[V:4] A,8 | 
[V:5] z8 | 
[V:1] z8 | 
[V:2] d2f3ed2- | 
[V:3] d6cB | 
[V:4] D,8 | 
[V:5] z8 | 
[V:1] E2F2G4 | 
[V:2] d2c2d4 | 
[V:3] A4B4 | 
[V:4] z8 | 
[V:5] z8 | 
[V:1] E2F2G4 | 
[V:2] z4e4 | 
[V:3] c8 | 
[V:4] z8 | 
[V:5] z8 | 
[V:1] A4A4 | 
[V:2] f4e4 | 
[V:3] A8 | 
[V:4] z8 | 
[V:5] z8 | 
[V:1] B4A4- | 
[V:2] z2e2c2d2 | 
[V:3] G4F4 | 
[V:4] z8 | 
[V:5] z8 | 
[V:1] A4A4 | 
[V:2] e2d4^c2 | 
[V:3] E8 | 
[V:4] A,,4A,,2A,,2 | 
[V:5] z8 | 
[V:1] F2G2A2G2- | 
[V:2] d6=B2 | 
[V:3] D8- | 
[V:4] B,,2G,,2F,,2G,,2 | 
[V:5] z8 | 
[V:1] G2^F2G2G2 | 
[V:2] A4G4 | 
[V:3] D8 | 
[V:4] D,4G,,4 | 
[V:5] z8 | 
[V:1] F2A3GG2- | 
[V:2] z8 | 
[V:3] z4d4 | 
[V:4] D,4G,,2B,,2 | 
[V:5] z8 | 
[V:1] G2^F2G4 | 
[V:2] z4d4 | 
[V:3] c4B4 | 
[V:4] A,,4G,,4- | 
[V:5] z8 | 
[V:1] z8 | 
[V:2] d4e4- | 
[V:3] G8 | 
[V:4] G,,4C,4- | 
[V:5] z8 | 
[V:1] z8 | 
[V:2] e4d2c2 | 
[V:3] A8 | 
[V:4] C,2B,,A,,D,4 | 
[V:5] z8 | 
[V:1] z8 | 
[V:2] =B2c2d4 | 
[V:3] G4B4- | 
[V:4] G,,6G,2- | 
[V:5] z8 | 
[V:1] z2G2G2A2- | 
[V:2] d4e4 | 
[V:3] B4c4 | 
[V:4] G,4C,4- | 
[V:5] z8 | 
[V:1] AG^FEF4 | 
[V:2] z8 | 
[V:3] A8 | 
[V:4] C,2D,6 | 
[V:5] z8 | 
[V:1] G8 | 
[V:2] z4d2d2 | 
[V:3] G8 | 
[V:4] G,,4B,,4- | 
[V:5] z8 | 
[V:1] z8 | 
[V:2] d4e4 | 
[V:3] B4A4 | 
[V:4] B,,2B,,2C,2C,2 | 
[V:5] z8 | 
[V:1] z8 | 
[V:2] d4=B4 | 
[V:3] F4G4- | 
[V:4] D,4G,,4 | 
[V:5] z8 | 
[V:1] z8 | 
[V:2] c4A4 | 
[V:3] G2^F2^F2E2 | 
[V:4] C,4D,4 | 
[V:5] z8 | 
[V:1] z8 | 
[V:2] =B2c2d4 | 
[V:3] G8- | 
[V:4] G,,2C,2B,,2G,,2- | 
[V:5] z8 | 
[V:1] z8 | 
[V:2] =B2c2d4 | 
[V:3] G8 | 
[V:4] G,,2C,4=B,,2 | 
[V:5] z8 | 
[V:1] z8 | 
[V:2] e4z4 | 
[V:3] z4G4 | 
[V:4] C,8 | 
[V:5] z8 | 
[V:1] z4A4 | 
[V:2] e4f4 | 
[V:3] A4F4 | 
[V:4] C,4D,4 | 
[V:5] z8 | 
[V:1] B4A4 | 
[V:2] e2d2f2e2 | 
[V:3] G4D4 | 
[V:4] G,,4D,4 | 
[V:5] z8 | 
[V:1] z2A2A2A2 | 
[V:2] c2d4^c2 | 
[V:3] E8 | 
[V:4] A,,8 | 
[V:5] z8 | 
[V:1] F2B3AG2- | 
[V:2] d6=B2 | 
[V:3] D8- | 
[V:4] B,,4G,,4 | 
[V:5] z8 | 
[V:1] G2^F2G4 | 
[V:2] A4G2=B2 | 
[V:3] D8 | 
[V:4] D,4G,,4 | 
[V:5] z8 | 
[V:1] E2F2G4 | 
[V:2] c2d4c=B | 
[V:3] z4D4 | 
[V:4] C,2B,,2G,,4 | 
[V:5] z8 | 
[V:1] A2A4F2 | 
[V:2] A2D2A3=B | 
[V:3] F8 | 
[V:4] F,,2F,3E,D,2 | 
[V:5] z8 | 
[V:1] E4D2G2 | 
[V:2] c4d4 | 
[V:3] G8 | 
[V:4] C,3B,,G,,2B,,2 | 
[V:5] z8 | 
[V:1] E2F2G4 | 
[V:2] z8 | 
[V:3] A4B4 | 
[V:4] A,,2A,2G,2B,2 | 
[V:5] z8 | 
[V:1] E2F2G4- | 
[V:2] z2c2B2G2- | 
[V:3] c4d4- | 
[V:4] A,4G,2B,2- | 
[V:5] z8 | 
[V:1] G2G2G2G2 | 
[V:2] G2B4c2 | 
[V:3] d4_e4 | 
[V:4] B,A,G,F,_E,2C,2 | 
[V:5] z8 | 
[V:1] F2A3GB2- | 
[V:2] A4z2G2 | 
[V:3] d4B4- | 
[V:4] D,2E,F,G,2G,,2 | 
[V:5] z8 | 
[V:1] Bcd2c2A2- | 
[V:2] B2G2A4 | 
[V:3] B4c4 | 
[V:4] G,2B,2A,G,F,E, | 
[V:5] z8 | 
[V:1] AGB3Ac2- | 
[V:2] F6GA | 
[V:3] d4c4 | 
[V:4] D,2B,,2F,4- | 
[V:5] z8 | 
[V:1] cBB3AG2- | 
[V:2] D2d4B2 | 
[V:3] d4B4 | 
[V:4] F,2D,2G,4 | 
[V:5] z8 | 
[V:1] GFA3E^F2 | 
[V:2] c2e2d4- | 
[V:3] A8 | 
[V:4] C,4D,4 | 
[V:5] z8 | 
[V:1] G8 ||  
[V:2] d8 ||  
[V:3] G8 ||  
[V:4] G,,8 ||  
[V:5] z8 ||  
[V:1]  [K:F] [K:clef=treble][M:2/1]z8 | 
[V:2]  [K:F] [K:clef=treble-8][M:2/1]z8 | 
[V:3]  [K:F] [K:clef=treble-8][M:2/1]G8- | 
[V:4]  [K:F] [K:clef=bass][M:2/1]z8 | 
[V:5]  [K:F] [K:clef=bass][M:2/1]z8 | 
[V:1] z8 | 
[V:2] z8 | 
[V:3] G8 | 
[V:4] E,4G,2G,2 | 
[V:5] z8 | 
[V:1] z8 | 
[V:2] z8 | 
[V:3] B8 | 
[V:4] G,2G,2G,4 | 
[V:5] z8 | 
[V:1] z8 | 
[V:2] z8 | 
[V:3] A8 | 
[V:4] z2F,4D,2 | 
[V:5] z8 | 
[V:1] z8 | 
[V:2] z8 | 
[V:3] G4B4 | 
[V:4] E,2F,2G,4- | 
[V:5] z8 | 
[V:1] z8 | 
[V:2] z8 | 
[V:3] B4c4 | 
[V:4] G,4A,4 | 
[V:5] z8 | 
[V:1] A2B2A2F2 | 
[V:2] z8 | 
[V:3] d8 | 
[V:4] z8 | 
[V:5] z8 | 
[V:1] G2G2F4 | 
[V:2] z8 | 
[V:3] _e4d4 | 
[V:4] z8 | 
[V:5] z8 | 
[V:1] z8 | 
[V:2] z8 | 
[V:3] B8 | 
[V:4] G,3F,G,2B,2 | 
[V:5] z8 | 
[V:1] z8 | 
[V:2] z8 | 
[V:3] c4B4 | 
[V:4] A,4G,4 | 
[V:5] z8 | 
[V:1] A4B4 | 
[V:2] z8 | 
[V:3] d8 | 
[V:4] z8 | 
[V:5] z8 | 
[V:1] A4F4 | 
[V:2] z8 | 
[V:3] c4d4 | 
[V:4] z4D,4 | 
[V:5] z8 | 
[V:1] G2B3Ac2- | 
[V:2] z8 | 
[V:3] G8 | 
[V:4] E,2G,3F,E,D, | 
[V:5] z8 | 
[V:1] cBAG^F3E | 
[V:2] z8 | 
[V:3] A8 | 
[V:4] F,2G,2D,4 | 
[V:5] z8 | 
[V:1] G8- | 
[V:2] d4e4 | 
[V:3] G8- | 
[V:4] G,,4z4 | 
[V:5] z8 | 
[V:1] G8 | 
[V:2] d4=B4 | 
[V:3] G8 | 
[V:4] G,2B,4G,2 | 
[V:5] z8 | 
[V:1] z8 | 
[V:2] c2A2=B2c2 | 
[V:3] z4G4 | 
[V:4] A,2F,2E,4 | 
[V:5] z8 | 
[V:1] z8 | 
[V:2] d3cA4 | 
[V:3] F4F4 | 
[V:4] D,8 | 
[V:5] z8 | 
[V:1] z4G4 | 
[V:2] z2G3FED | 
[V:3] B4B4 | 
[V:4] z8 | 
[V:5] z8 | 
[V:1] A4G4 | 
[V:2] F4G4 | 
[V:3] A4d4- | 
[V:4] z8 | 
[V:5] z8 | 
[V:1] E8 | 
[V:2] A8 | 
[V:3] d2^c2^c2=B2 | 
[V:4] z8 | 
[V:5] z8 | 
[V:1] z2F4D2 | 
[V:2] z8 | 
[V:3] d6cB | 
[V:4] D,3E,F,2G,2 | 
[V:5] z8 | 
[V:1] E2F2G4- | 
[V:2] z8 | 
[V:3] A4B4 | 
[V:4] C,2D,2G,,4 | 
[V:5] z8 | 
[V:1] G4A4 | 
[V:2] z4e4 | 
[V:3] c8 | 
[V:4] z2C,2A,,2C,2 | 
[V:5] z8 | 
[V:1] z8 | 
[V:2] f4e4 | 
[V:3] A8 | 
[V:4] F,,3G,,A,,3B,, | 
[V:5] z8 | 
[V:1] z8 | 
[V:2] e4c2d2 | 
[V:3] G4F4 | 
[V:4] C,2D,E,F,2D,2 | 
[V:5] z8 | 
[V:1] z8 | 
[V:2] ed^c=B^c4 | 
[V:3] E8 | 
[V:4] A,,8 | 
[V:5] z8 | 
[V:1] A4B4 | 
[V:2] d8- | 
[V:3] D8- | 
[V:4] D,4G,,4 | 
[V:5] z8 | 
[V:1] A4A4 | 
[V:2] d8 | 
[V:3] D8 | 
[V:4] z4z2D,2- | 
[V:5] z8 | 
[V:1] F2G2A2G2- | 
[V:2] z8 | 
[V:3] z4d4 | 
[V:4] D,2G,,2D,2B,,2 | 
[V:5] z8 | 
[V:1] G2^F2G4 | 
[V:2] z4d4 | 
[V:3] c4B4 | 
[V:4] A,,4G,,4 | 
[V:5] z8 | 
[V:1] z8 | 
[V:2] d2e2d2=B2 | 
[V:3] G8 | 
[V:4] z8 | 
[V:5] z8 | 
[V:1] z8 | 
[V:2] z2c4A2 | 
[V:3] A8 | 
[V:4] z8 | 
[V:5] z8 | 
[V:1] z8 | 
[V:2] =B2c2d4- | 
[V:3] G4B4- | 
[V:4] G,6F,E, | 
[V:5] z8 | 
[V:1] z8 | 
[V:2] d4e4 | 
[V:3] B4c4 | 
[V:4] D,2G,2C,2D,E, | 
[V:5] z8 | 
[V:1] z4A4 | 
[V:2] z8 | 
[V:3] A8 | 
[V:4] F,E,D,C,D,4 | 
[V:5] z8 | 
[V:1] B6AG | 
[V:2] z8 | 
[V:3] G8 | 
[V:4] z8 | 
[V:5] z8 | 
[V:1] F2G2A4- | 
[V:2] z8 | 
[V:3] B4A4 | 
[V:4] z8 | 
[V:5] z8 | 
[V:1] A4B4- | 
[V:2] z8 | 
[V:3] F4G4- | 
[V:4] z8 | 
[V:5] z8 | 
[V:1] B2AGA4 | 
[V:2] z8 | 
[V:3] G2^F2^F2E2 | 
[V:4] z8 | 
[V:5] z8 | 
[V:1] G4z2G2- | 
[V:2] =B2c2d4 | 
[V:3] G8- | 
[V:4] G,,8- | 
[V:5] z8 | 
[V:1] G2FED4 | 
[V:2] =B2c2d4 | 
[V:3] G8 | 
[V:4] G,,8 | 
[V:5] z8 | 
[V:1] C8 | 
[V:2] e4z4 | 
[V:3] z4G4 | 
[V:4] C,8 | 
[V:5] z8 | 
[V:1] z4A4 | 
[V:2] e4f4 | 
[V:3] A4F4 | 
[V:4] z8 | 
[V:5] z8 | 
[V:1] B4A4 | 
[V:2] e2d2f3e | 
[V:3] G4D4 | 
[V:4] z8 | 
[V:5] z8 | 
[V:1] G2B4AG | 
[V:2] c2d4c2 | 
[V:3] E8 | 
[V:4] z8 | 
[V:5] z8 | 
[V:1] F2G4^F2 | 
[V:2] d2=B2A4 | 
[V:3] D8- | 
[V:4] z8 | 
[V:5] z8 | 
[V:1] G4z2G2 | 
[V:2] z2G2=B2=B2 | 
[V:3] D8 | 
[V:4] G,,4G,,2G,,2 | 
[V:5] z8 | 
[V:1] G2G2G2G2 | 
[V:2] G2G2=B2=B2 | 
[V:3] z4D4 | 
[V:4] G,,2G,,2G,,2G,,2 | 
[V:5] z8 | 
[V:1] F2G2A2A2 | 
[V:2] A4D4 | 
[V:3] F8 | 
[V:4] D,4z2D,2 | 
[V:5] z8 | 
[V:1] G3FE2D2 | 
[V:2] z2G2C2G2 | 
[V:3] G8 | 
[V:4] E,4G,4 | 
[V:5] z8 | 
[V:1] F4G4 | 
[V:2] F2A2G2B2 | 
[V:3] A4B4 | 
[V:4] D,2D,2G,4 | 
[V:5] z8 | 
[V:1] A4z2A2 | 
[V:2] A4z2F2 | 
[V:3] c4d4- | 
[V:4] F,4D,4 | 
[V:5] z8 | 
[V:1] B2A3GG2- | 
[V:2] G2A2c3B | 
[V:3] d4_e4 | 
[V:4] z2D,2C,2C,2 | 
[V:5] z8 | 
[V:1] G2^F2G4- | 
[V:2] A4G4 | 
[V:3] d4B4- | 
[V:4] D,2D,2G,,2G,2- | 
[V:5] z8 | 
[V:1] G4E2F2 | 
[V:2] z2d2c2A2 | 
[V:3] B4c4 | 
[V:4] G,2B,2A,4 | 
[V:5] z8 | 
[V:1] (3G4G4G4 | 
[V:2] =B4G4 | 
[V:3] d4c4 | 
[V:4] G,3F,E,4 | 
[V:5] z8 | 
[V:1] (3F4B6A2 | 
[V:2] A2D2d4- | 
[V:3] d4B4 | 
[V:4] D,4G,,4 | 
[V:5] z8 | 
[V:1] (3F4G4^F4 | 
[V:2] d4d3c | 
[V:3] A8 | 
[V:4] D,8 | 
[V:5] z8 | 
[V:1] G8- | 
[V:2] d2e2=B2c2 | 
[V:3] G8- | 
[V:4] G,,8- | 
[V:5] z8 | 
[V:1] G8 ||  
[V:2] d8 ||  
[V:3] G8 ||  
[V:4] G,,8 ||  
[V:5] z8 ||  
[V:1]  [K:F] [K:clef=treble][M:2/1]z8 | 
[V:2]  [K:F] [K:clef=treble-8][M:2/1]z8 | 
[V:3]  [K:F] [K:clef=treble-8][M:2/1]z8 | 
[V:4]  [K:F] [K:clef=bass][M:2/1]E,4F,4 | 
[V:5]  [K:F] [K:clef=bass][M:2/1]z8 | 
[V:1] z8 | 
[V:2] z8 | 
[V:3] z8 | 
[V:4] G,3F,D,4 | 
[V:5] E,4F,4 | 
[V:1] z8 | 
[V:2] z8 | 
[V:3] z8 | 
[V:4] G,,2G,2A,2B,2- | 
[V:5] G,3F,D,4 | 
[V:1] z8 | 
[V:2] z8 | 
[V:3] z8 | 
[V:4] B,A,G,2F,2D,2 | 
[V:5] G,,2G,2A,2B,2- | 
[V:1] z8 | 
[V:2] z8 | 
[V:3] z8 | 
[V:4] E,4D,4 | 
[V:5] B,A,G,2F,2D,2 | 
[V:1] z8 | 
[V:2] z8 | 
[V:3] z8 | 
[V:4] z2G,2A,2B,2- | 
[V:5] E,4D,4 | 
[V:1] z8 | 
[V:2] z8 | 
[V:3] z8 | 
[V:4] B,A,G,2F,2G,2- | 
[V:5] z2G,2A,2B,2- | 
[V:1] z8 | 
[V:2] z8 | 
[V:3] z8 | 
[V:4] G,A,B,CA,2B,2- | 
[V:5] B,A,G,2F,2G,2- | 
[V:1] z8 | 
[V:2] z8 | 
[V:3] z8 | 
[V:4] B,A,G,2F,2D,2 | 
[V:5] G,A,B,CA,2B,2- | 
[V:1] z8 | 
[V:2] z8 | 
[V:3] z8 | 
[V:4] G,2B,2A,4 | 
[V:5] B,A,G,2F,2D,2 | 
[V:1] z8 | 
[V:2] z8 | 
[V:3] z8 | 
[V:4] G,4z4 | 
[V:5] G,2B,2A,4 | 
[V:1] z8 | 
[V:2] z8 | 
[V:3] z8 | 
[V:4] E,2F,2G,2G,2 | 
[V:5] G,4z4 | 
[V:1] z8 | 
[V:2] z8 | 
[V:3] z8 | 
[V:4] G,2A,2B,3A, | 
[V:5] E,2F,2G,2G,2 | 
[V:1] z8 | 
[V:2] z8 | 
[V:3] z8 | 
[V:4] G,2F,2G,2D2- | 
[V:5] G,2A,2B,3A, | 
[V:1] z8 | 
[V:2] z8 | 
[V:3] z8 | 
[V:4] DCA,2G,2B,2- | 
[V:5] G,2F,2G,2D2- | 
[V:1] z8 | 
[V:2] z8 | 
[V:3] z8 | 
[V:4] B,A,F,2G,3F, | 
[V:5] DCA,2G,2B,2- | 
[V:1] z8 | 
[V:2] z8 | 
[V:3] z8 | 
[V:4] D,2A,2B,2C2 | 
[V:5] B,A,F,2G,3F, | 
[V:1] z8 | 
[V:2] z8 | 
[V:3] z8 | 
[V:4] D3CB,2A,2 | 
[V:5] D,2A,2B,2C2 | 
[V:1] z8 | 
[V:2] z8 | 
[V:3] z8 | 
[V:4] B,2G,4F,2 | 
[V:5] D3CB,2A,2 | 
[V:1] z8 | 
[V:2] z8 | 
[V:3] z8 | 
[V:4] G,2B,2A,3G, | 
[V:5] B,2G,4F,2 | 
[V:1] z8 | 
[V:2] z8 | 
[V:3] z8 | 
[V:4] E,D,G,4F,2 | 
[V:5] G,2B,2A,3G, | 
[V:1] z8 | 
[V:2] z8 | 
[V:3] z8 | 
[V:4] G,2B,2A,4 | 
[V:5] E,D,G,4^F,2 | 
[V:1] z8 ||  
[V:2] z8 ||  
[V:3] z8 ||  
[V:4] G,8 ||  
[V:5] G,8 ||  
[V:1]  [K:F] [K:clef=treble][M:2/1]z8 | 
[V:2]  [K:F] [K:clef=treble-8][M:2/1]=B2c2d4 | 
[V:3]  [K:F] [K:clef=treble-8][M:2/1]G8- | 
[V:4]  [K:F] [K:clef=bass][M:2/1]z8 | 
[V:5]  [K:F] [K:clef=bass][M:2/1]z8 | 
[V:1] z8 | 
[V:2] d4e4 | 
[V:3] G8 | 
[V:4] G,,4C,4 | 
[V:5] z8 | 
[V:1] z8 | 
[V:2] d2B2d2G2 | 
[V:3] B8 | 
[V:4] B,,4G,,2G,2 | 
[V:5] z8 | 
[V:1] z8 | 
[V:2] z2c4A2 | 
[V:3] A8 | 
[V:4] A,G,^F,E,F,4 | 
[V:5] z8 | 
[V:1] z8 | 
[V:2] =B2c2d4- | 
[V:3] G4B4 | 
[V:4] G,2E,2D,2G,2- | 
[V:5] z8 | 
[V:1] z8 | 
[V:2] d4e4 | 
[V:3] B4c4 | 
[V:4] G,2B,2A,4 | 
[V:5] z8 | 
[V:1] A4A4 | 
[V:2] z2d2f3e | 
[V:3] d8 | 
[V:4] D,8 | 
[V:5] z8 | 
[V:1] G4F2B2- | 
[V:2] c2c2d2B2 | 
[V:3] _e4d4 | 
[V:4] z8 | 
[V:5] z8 | 
[V:1] BAG2FDG2- | 
[V:2] G2d4B2 | 
[V:3] B8 | 
[V:4] z8 | 
[V:5] z8 | 
[V:1] G2^F2G4- | 
[V:2] A4G4- | 
[V:3] c4B4 | 
[V:4] z8 | 
[V:5] z8 | 
[V:1] G4z4 | 
[V:2] G4z4 | 
[V:3] d8 | 
[V:4] B,2B,2B,2B,2 | 
[V:5] z8 | 
[V:1] E2F2G4- | 
[V:2] z8 | 
[V:3] c4d4 | 
[V:4] A,4G,4- | 
[V:5] z8 | 
[V:1] G2G2G2G2 | 
[V:2] =B4c4 | 
[V:3] G8 | 
[V:4] G,4E,4 | 
[V:5] z8 | 
[V:1] F2G4^F2 | 
[V:2] d4d4 | 
[V:3] A8 | 
[V:4] D,8 | 
[V:5] z8 | 
[V:1] G8- | 
[V:2] d4e4 | 
[V:3] G8- | 
[V:4] G,,4C,2C,2 | 
[V:5] z8 | 
[V:1] G8 | 
[V:2] d2c2=B4 | 
[V:3] G8 | 
[V:4] B,,2C,2G,,2G,,2 | 
[V:5] z8 | 
[V:1] z8 | 
[V:2] A4z2e2 | 
[V:3] z4G4 | 
[V:4] D,2D,2C,4 | 
[V:5] z8 | 
[V:1] z8 | 
[V:2] f2f2f2f2 | 
[V:3] F4F4 | 
[V:4] z2F,,2B,,2B,,2 | 
[V:5] z8 | 
[V:1] z8 | 
[V:2] f2d2f3e | 
[V:3] B4B4 | 
[V:4] B,,2B,,2B,,4 | 
[V:5] z8 | 
[V:1] z8 | 
[V:2] c2d3ef2- | 
[V:3] A4d4- | 
[V:4] F,4D,4 | 
[V:5] z8 | 
[V:1] z8 | 
[V:2] f2ede4 | 
[V:3] d2^c2^c2=B2 | 
[V:4] [A,,8A,8] | 
[V:5] z8 | 
[V:1] z8 | 
[V:2] d4z2d2 | 
[V:3] d6cB | 
[V:4] D,8 | 
[V:5] z8 | 
[V:1] E2F2G4 | 
[V:2] c4d4 | 
[V:3] A4B4 | 
[V:4] z4G,,4 | 
[V:5] z8 | 
[V:1] G4G4 | 
[V:2] G2G2_e2_e2 | 
[V:3] c8 | 
[V:4] C,2C,2C,2C,2 | 
[V:5] z8 | 
[V:1] F2A3GF2 | 
[V:2] d4c4 | 
[V:3] A8 | 
[V:4] D,2D,2F,4 | 
[V:5] z8 | 
[V:1] E4F2D2 | 
[V:2] c2c2A2A2 | 
[V:3] G4F4 | 
[V:4] C,4D,4 | 
[V:5] z8 | 
[V:1] E2F2G4 | 
[V:2] c3=BG4 | 
[V:3] E8 | 
[V:4] A,,4E,4 | 
[V:5] z8 | 
[V:1] A2F2G2A2 | 
[V:2] d3c=B2A2 | 
[V:3] D8- | 
[V:4] F,2D,2G,,2D,2 | 
[V:5] z8 | 
[V:1] D2G4^F2 | 
[V:2] G2=B2A4 | 
[V:3] D8 | 
[V:4] B,,2G,,2D,4 | 
[V:5] z8 | 
[V:1] G8- | 
[V:2] G4z2d2 | 
[V:3] z4d4 | 
[V:4] G,,8 | 
[V:5] z8 | 
[V:1] G8 | 
[V:2] e4d4- | 
[V:3] c4B4 | 
[V:4] z8 | 
[V:5] z8 | 
[V:1] z8 | 
[V:2] d4=B4 | 
[V:3] G8 | 
[V:4] z8 | 
[V:5] z8 | 
[V:1] z8 | 
[V:2] z2c4A2 | 
[V:3] A8 | 
[V:4] z8 | 
[V:5] z8 | 
[V:1] z8 | 
[V:2] =B2c2d4- | 
[V:3] G4B4- | 
[V:4] z8 | 
[V:5] z8 | 
[V:1] z8 | 
[V:2] d4e4 | 
[V:3] B4c4 | 
[V:4] z8 | 
[V:5] z8 | 
[V:1] z8 | 
[V:2] c3de2f2 | 
[V:3] A8 | 
[V:4] z8 | 
[V:5] z8 | 
[V:1] z8 | 
[V:2] e2d4g2- | 
[V:3] G8 | 
[V:4] z8 | 
[V:5] z8 | 
[V:1] z8 | 
[V:2] gfd2c2f2- | 
[V:3] B4A4 | 
[V:4] z8 | 
[V:5] z8 | 
[V:1] z8 | 
[V:2] fed3ce2- | 
[V:3] F4G4- | 
[V:4] z8 | 
[V:5] z8 | 
[V:1] z8 | 
[V:2] edc=BA4 | 
[V:3] G2^F2^F2E2 | 
[V:4] z8 | 
[V:5] z8 | 
[V:1] G8 | 
[V:2] G8 | 
[V:3] G8- | 
[V:4] G,,8- | 
[V:5] z8 | 
[V:1] G8 | 
[V:2] =B8 | 
[V:3] G8 | 
[V:4] G,,8 | 
[V:5] z8 | 
[V:1] E8 | 
[V:2] c8 | 
[V:3] z4G4 | 
[V:4] C,8 | 
[V:5] z8 | 
[V:1] F8 | 
[V:2] c8- | 
[V:3] A4F4 | 
[V:4] F,,8 | 
[V:5] z8 | 
[V:1] E4D4- | 
[V:2] c4A4- | 
[V:3] G4D4 | 
[V:4] C,4D,4 | 
[V:5] z8 | 
[V:1] D2^C=B,C4 | 
[V:2] A4A4 | 
[V:3] E8 | 
[V:4] A,,8 | 
[V:5] z8 | 
[V:1] D8 | 
[V:2] F2B2A2d2- | 
[V:3] D8- | 
[V:4] z8 | 
[V:5] z8 | 
[V:1] A8 | 
[V:2] dcf3ed2- | 
[V:3] D8 | 
[V:4] z8 | 
[V:5] z8 | 
[V:1] B8 | 
[V:2] dcg3fd2- | 
[V:3] z4D4 | 
[V:4] G,,8 | 
[V:5] z8 | 
[V:1] A4A4 | 
[V:2] dcf3edc | 
[V:3] F8 | 
[V:4] D,8 | 
[V:5] z8 | 
[V:1] z2G2E2G2 | 
[V:2] gfedc4 | 
[V:3] G8 | 
[V:4] E,8 | 
[V:5] z8 | 
[V:1] F2A2G2B2 | 
[V:2] d4z2G2 | 
[V:3] A4B4 | 
[V:4] D,4G,,4 | 
[V:5] z8 | 
[V:1] A2c2B2d2- | 
[V:2] A2F2B3A | 
[V:3] c4d4- | 
[V:4] z4G,,4 | 
[V:5] z8 | 
[V:1] dcBAG2FE | 
[V:2] G2F2_EFG2 | 
[V:3] d4_e4 | 
[V:4] B,,4C,4 | 
[V:5] z8 | 
[V:1] F2d3cB2- | 
[V:2] F2D2G4- | 
[V:3] d4B4- | 
[V:4] D,4G,,2G,2- | 
[V:5] z8 | 
[V:1] BAG3FED | 
[V:2] G8 | 
[V:3] B4c4 | 
[V:4] G,F,E,D,C,4 | 
[V:5] z8 | 
[V:1] F2G2A4- | 
[V:2] B4A4 | 
[V:3] d4c4 | 
[V:4] B,,4F,4- | 
[V:5] z8 | 
[V:1] A2G2G4- | 
[V:2] D4d4- | 
[V:3] d4B4 | 
[V:4] F,4G,4 | 
[V:5] z8 | 
[V:1] G4^F4 | 
[V:2] d8- | 
[V:3] A8 | 
[V:4] D,8 | 
[V:5] z8 | 
[V:1] G8- | 
[V:2] d4=B3c | 
[V:3] G8- | 
[V:4] G,,8- | 
[V:5] z8 | 
[V:1] G8- | 
[V:2] d2e2=B2c2 | 
[V:3] G8- | 
[V:4] G,,8- | 
[V:5] z8 | 
[V:1] G8 |]  
[V:2] d8 |]  
[V:3] G8 |]  
[V:4] G,,8 |]  
[V:5] z8 |]  



